X: 14359
T: Gallowglass, The
R: jig
M: 6/8
K: Aminor
A,/B,/|:C>B,A, EB,D|CA,A,A,2A,/B,/|C>B,A, E^FG|B,G,G,G,2A,/B,/|
C>B,A, EB,D|CEAE2D|C>B,A,E2^G|1 AECA,2A,/B,/:|2 AECA,2E||
|:A^GA EG/F/E/D/|CA,A,A,2A,/B,/|C>B,A, E^FG|B,G,G,G,2E|
[1A^GA EG/F/E/D/|CA,A,A,2E/D/|C>B,A,E2^G|AECA,2E:|
[2AEG FDB,|EcA B^GE|A,B,C B,E/D/C/B,/|CA,A,A,2E||
AE/F/G F>DB,|E/D/C/B,/A, B,^G,E|A,B,C B,E/D/C/B,/|CA,^G,A,2A,/B,/|
|:C>B,A, EB,D|CA,A,A,2A,/B,/|C>B,A, E^FG|B,G,G,G,2A,/B,/|
C>B,A, EB,D|CEAE2D|C>B,A,E2^G|1 AECA,2A,/B,/:|2 AECA,2||

